X: 24
T:St Annes
M:4/4
L:1/8
Q:180
K:D
"D"fedc "G"edcB|"D"A2 FA DAFA-|"G"B2 GB EB GB-|"D"A2FA DA F e-|!
fedc "G"edcB|"D"A2 FA DAFA-|"G(Em)"B2 ed "A"cA Bc|"D"d2 (3edc d4::!
"D"ef- fg fedc|"G"B g2 f g4|"A"edcB ABcd|"D"b a2 ^g a4|!
"D"f3 g fedc|"G"B g2 f g4|"A"edcB ABcd|"D"e d2 c d4:|
